X: 1
T: Din Tarrant's
M: 2/4
L: 1/8
R: polka
K: Emin
E>F |:GE BE |GE BA/G/ |FD AD |dD A2 |
Be ed |Be ed |Bd BA |1 G/E/D E>F :|2 G/E/D E2||
|: d>B GB |D/E/F/G/ A2 |c>A FD |EF GB |
d>B GB |D/E/F/G/ A2 |c>A FD |EF G2 :|
